X: 30034
T: Off To California
R: hornpipe
M: 4/4
K: Gmajor
DE|GABG AGED|GABd e2d2|edBd gedB|ABAG E2DE|
GABG AGED|GABd e2d2|efge dBAc|B2G2G2||
AB|dgfg edBc|dgfg e2d2|edBd gedB|ABAG E2DE|
GABG AGED|GABd e2d2|efge dBAc|B2G2G2||

